public/cloud-icons/azure/data/azure-integration-runtime.svg

<?xml version="1.0" encoding="UTF-8" standalone="no"?>
<!-- Generated by Microsoft Visio, SVG Export Azure Integration Runtime.svg Page-1 -->

<svg
   xmlns:dc="http://purl.org/dc/elements/1.1/"
   xmlns:cc="http://creativecommons.org/ns#"
   xmlns:rdf="http://www.w3.org/1999/02/22-rdf-syntax-ns#"
   xmlns:svg="http://www.w3.org/2000/svg"
   xmlns="http://www.w3.org/2000/svg"
   xmlns:sodipodi="http://sodipodi.sourceforge.net/DTD/sodipodi-0.dtd"
   xmlns:inkscape="http://www.inkscape.org/namespaces/inkscape"
   width="56.692902"
   height="56.692902"
   viewBox="0 0 56.6929 56.692903"
   xml:space="preserve"
   class="st8"
   version="1.1"
   id="svg73"
   sodipodi:docname="Azure Integration Runtime.svg"
   style="font-size:12px;overflow:visible;color-interpolation-filters:sRGB;fill:none;fill-rule:evenodd;stroke-linecap:square;stroke-miterlimit:3"
   inkscape:version="0.92.5 (2060ec1f9f, 2020-04-08)"><metadata
   id="metadata77"><rdf:RDF><cc:Work
       rdf:about=""><dc:format>image/svg+xml</dc:format><dc:type
         rdf:resource="http://purl.org/dc/dcmitype/StillImage" /></cc:Work></rdf:RDF></metadata><sodipodi:namedview
   pagecolor="#ffffff"
   bordercolor="#666666"
   borderopacity="1"
   objecttolerance="10"
   gridtolerance="10"
   guidetolerance="10"
   inkscape:pageopacity="0"
   inkscape:pageshadow="2"
   inkscape:window-width="640"
   inkscape:window-height="480"
   id="namedview75"
   showgrid="false"
   inkscape:zoom="2.4486917"
   inkscape:cx="28.346461"
   inkscape:cy="14.173204"
   inkscape:window-x="0"
   inkscape:window-y="0"
   inkscape:window-maximized="0"
   inkscape:current-layer="svg73" />
	<style
   type="text/css"
   id="style2">
	<![CDATA[
		.st1 {fill:none;stroke:none;stroke-linecap:butt;stroke-width:0.48}
		.st2 {fill:url(#grad0-7);stroke:none;stroke-linecap:butt;stroke-width:0.48}
		.st3 {fill:#ffffff;stroke:none;stroke-linecap:butt;stroke-width:0.48}
		.st4 {fill:#212121;stroke:none;stroke-linecap:butt;stroke-width:0.48}
		.st5 {fill:#76bc2d;stroke:none;stroke-linecap:butt;stroke-width:0.48}
		.st6 {fill:#76bc2d}
		.st7 {stroke:none;stroke-linecap:butt;stroke-width:0.48}
		.st8 {fill:none;fill-rule:evenodd;font-size:12px;overflow:visible;stroke-linecap:square;stroke-miterlimit:3}
	]]>
	</style>

	<defs
   id="Patterns_And_Gradients">
		<linearGradient
   id="grad0-7"
   x1="0"
   y1="72.893577"
   x2="41.813437"
   y2="72.893577"
   gradientTransform="scale(1.1900481,0.84030219)"
   gradientUnits="userSpaceOnUse">
			<stop
   offset="0"
   stop-color="#0078d4"
   stop-opacity="1"
   id="stop4" />
			<stop
   offset="0.16"
   stop-color="#1380da"
   stop-opacity="1"
   id="stop6" />
			<stop
   offset="0.53"
   stop-color="#3c91e5"
   stop-opacity="1"
   id="stop8" />
			<stop
   offset="0.82"
   stop-color="#559cec"
   stop-opacity="1"
   id="stop10" />
			<stop
   offset="1"
   stop-color="#5ea0ef"
   stop-opacity="1"
   id="stop12" />
		</linearGradient>
	</defs>
	<g
   id="g71"
   transform="translate(-5.66929,-5.6693014)">
		<title
   id="title16">Page-1</title>
		<g
   id="group20941-1"
   transform="translate(5.66929,-34.0157)">
			<title
   id="title18">Azure Integration Runtime.20941</title>
			<g
   id="shape20942-2">
				<title
   id="title20">Sheet.20942</title>
				<rect
   x="0"
   y="39.685001"
   width="56.692902"
   height="56.692902"
   class="st1"
   id="rect22"
   style="fill:none;stroke:none;stroke-width:0.47999999;stroke-linecap:butt" />
			</g>
			<g
   id="shape20943-4"
   transform="translate(3.46847,-13.6239)">
				<title
   id="title25">Sheet.20943</title>
				<path
   d="M 11.11,96.38 H 35.75 A 13.5388,13.5388 -180 0 0 49.76,83.37 13.3398,13.3398 -180 0 0 38.02,70.53 14.4051,14.4051 -180 0 0 24.21,61.26 14.0734,14.0734 -180 0 0 9.7,74.6 11.2048,11.2048 -180 0 0 0,85.34 11.3046,11.3046 -180 0 0 11.11,96.38 Z"
   class="st2"
   id="path27"
   inkscape:connector-curvature="0"
   style="fill:url(#grad0-7);stroke:none;stroke-width:0.47999999;stroke-linecap:butt" />
			</g>
			<g
   id="group20944-8"
   transform="translate(32.514,-1.71609)">
				<title
   id="title30">Sheet.20944</title>
				<g
   id="shape20945-9">
					<title
   id="title32">Sheet.20945</title>
					<circle
   cx="11.2059"
   cy="85.171997"
   class="st3"
   id="ellipse34"
   r="11.2059"
   style="fill:#ffffff;stroke:none;stroke-width:0.47999999;stroke-linecap:butt" />
				</g>
				<g
   id="shape20946-11"
   transform="translate(1.70079,-2.07893)">
					<title
   id="title37">Sheet.20946</title>
					<path
   d="M 9.51,77.75 A 9.50513,9.50513 0 1 1 0,87.25 9.50457,9.50457 0 0 1 9.51,77.75 Z m 0,-3.41 A 12.9067,12.9067 -180 1 0 22.41,87.25 12.9209,12.9209 -180 0 0 9.51,74.34 Z"
   class="st4"
   id="path39"
   inkscape:connector-curvature="0"
   style="fill:#212121;stroke:none;stroke-width:0.47999999;stroke-linecap:butt" />
				</g>
			</g>
			<g
   id="group20947-13"
   transform="translate(35.6984,-8.2165)">
				<title
   id="title43">Sheet.20947</title>
				<g
   id="shape20948-14"
   transform="translate(0,-3.87269)">
					<title
   id="title45">Sheet.20948</title>
					<rect
   x="0"
   y="94.858597"
   width="2.04491"
   height="1.51937"
   class="st5"
   id="rect47"
   style="fill:#76bc2d;stroke:none;stroke-width:0.47999999;stroke-linecap:butt" />
				</g>
				<g
   id="shape20949-16"
   transform="translate(14.3887,-3.87269)">
					<title
   id="title50">Sheet.20949</title>
					<rect
   x="0"
   y="94.858597"
   width="2.04491"
   height="1.51937"
   class="st5"
   id="rect52"
   style="fill:#76bc2d;stroke:none;stroke-width:0.47999999;stroke-linecap:butt" />
				</g>
				<g
   id="shape20950-18"
   transform="translate(2.0245)">
					<title
   id="title55">Sheet.20950</title>
					<path
   d="M 6.71,96.33 V 93.11 H 3.4 V 87.16 L 1.52,87.18 A 1.53071,1.53071 -180 0 0 0,88.72 l 0.04,6.13 a 1.53468,1.53468 -180 0 0 1.53,1.53 h 0.01 z"
   class="st6"
   id="path57"
   inkscape:connector-curvature="0"
   style="fill:#76bc2d" />
					<path
   d="M 6.71,96.33 V 93.11 H 3.4 V 87.16 L 1.52,87.18 A 1.53071,1.53071 -180 0 0 0,88.72 l 0.04,6.13 a 1.53468,1.53468 -180 0 0 1.53,1.53 h 0.01"
   class="st7"
   id="path59"
   inkscape:connector-curvature="0"
   style="stroke:none;stroke-width:0.47999999;stroke-linecap:butt" />
				</g>
				<g
   id="shape20951-21"
   transform="translate(7.79868,-0.0493228)">
					<title
   id="title62">Sheet.20951</title>
					<path
   d="m 0,87.21 v 3.58 h 3.31 v 5.59 L 5.09,96.37 A 1.53071,1.53071 -180 0 0 6.61,94.82 L 6.57,88.69 A 1.53524,1.53524 -180 0 0 5.04,87.17 H 5.03 Z"
   class="st6"
   id="path64"
   inkscape:connector-curvature="0"
   style="fill:#76bc2d" />
					<path
   d="m 0,87.21 v 3.58 h 3.31 v 5.59 L 5.09,96.37 A 1.53071,1.53071 -180 0 0 6.61,94.82 L 6.57,88.69 A 1.53524,1.53524 -180 0 0 5.04,87.17 H 5.03"
   class="st7"
   id="path66"
   inkscape:connector-curvature="0"
   style="stroke:none;stroke-width:0.47999999;stroke-linecap:butt" />
				</g>
			</g>
		</g>
	</g>
</svg>

<svg xmlns="http://www.w3.org/2000/svg" xml:space="preserve" width="56.693" height="56.693" style="font-size:12px;overflow:visible;color-interpolation-filters:sRGB;fill-rule:evenodd;stroke-linecap:square;stroke-miterlimit:3" viewBox="0 0 56.693 56.693"><defs><linearGradient id="a" x1="0" x2="41.813" y1="72.894" y2="72.894" gradientTransform="scale(1.19005 .8403)" gradientUnits="userSpaceOnUse"><stop offset="0" stop-color="#0078d4"/><stop offset=".16" stop-color="#1380da"/><stop offset=".53" stop-color="#3c91e5"/><stop offset=".82" stop-color="#559cec"/><stop offset="1" stop-color="#5ea0ef"/></linearGradient></defs><g transform="translate(-5.67 -5.67)"><title>Page-1</title><g transform="translate(5.67 -34.016)"><title>Azure Integration Runtime.20941</title><title>Sheet.20942</title><path d="M0 39.685h56.693v56.693H0z" style="fill:none;stroke:none;stroke-width:.47999999;stroke-linecap:butt"/><g transform="translate(3.468 -13.624)"><title>Sheet.20943</title><path d="M11.11 96.38h24.64a13.54 13.54-180 0 0 14.01-13.01 13.34 13.34-180 0 0-11.74-12.84 14.405 14.405-180 0 0-13.81-9.27A14.073 14.073-180 0 0 9.7 74.6 11.205 11.205-180 0 0 0 85.34a11.305 11.305-180 0 0 11.11 11.04" style="fill:url(#a);stroke:none;stroke-width:.47999999;stroke-linecap:butt"/></g><g transform="translate(32.514 -1.716)"><title>Sheet.20944</title><title>Sheet.20945</title><circle cx="11.206" cy="85.172" r="11.206" style="fill:#fff;stroke:none;stroke-width:.47999999;stroke-linecap:butt"/><g transform="translate(1.7 -2.079)"><title>Sheet.20946</title><path d="M9.51 77.75A9.505 9.505 0 1 1 0 87.25a9.505 9.505 0 0 1 9.51-9.5m0-3.41a12.907 12.907-180 1 0 12.9 12.91 12.92 12.92-180 0 0-12.9-12.91" style="fill:#212121;stroke:none;stroke-width:.47999999;stroke-linecap:butt"/></g></g><g transform="translate(35.698 -8.216)"><title>Sheet.20947</title><g transform="translate(0 -3.873)"><title>Sheet.20948</title><path d="M0 94.859h2.045v1.519H0z" style="fill:#76bc2d;stroke:none;stroke-width:.47999999;stroke-linecap:butt"/></g><g transform="translate(14.389 -3.873)"><title>Sheet.20949</title><path d="M0 94.859h2.045v1.519H0z" style="fill:#76bc2d;stroke:none;stroke-width:.47999999;stroke-linecap:butt"/></g><g transform="translate(2.025)"><title>Sheet.20950</title><path d="M6.71 96.33v-3.22H3.4v-5.95l-1.88.02A1.53 1.53-180 0 0 0 88.72l.04 6.13a1.535 1.535-180 0 0 1.53 1.53h.01z" style="fill:#76bc2d"/><path d="M6.71 96.33v-3.22H3.4v-5.95l-1.88.02A1.53 1.53-180 0 0 0 88.72l.04 6.13a1.535 1.535-180 0 0 1.53 1.53h.01" style="stroke:none;stroke-width:.47999999;stroke-linecap:butt"/></g><g transform="translate(7.799 -.05)"><title>Sheet.20951</title><path d="M0 87.21v3.58h3.31v5.59l1.78-.01a1.53 1.53-180 0 0 1.52-1.55l-.04-6.13a1.535 1.535-180 0 0-1.53-1.52h-.01Z" style="fill:#76bc2d"/><path d="M0 87.21v3.58h3.31v5.59l1.78-.01a1.53 1.53-180 0 0 1.52-1.55l-.04-6.13a1.535 1.535-180 0 0-1.53-1.52h-.01" style="stroke:none;stroke-width:.47999999;stroke-linecap:butt"/></g></g></g></g></svg>
